X:851
T:Duke of York's
S:Bruce & Emmett's Drummers and Fifers Guide (1862), p. 85
M:3/4
L:1/8
Q:1/4=180
K:G
%%MIDI program 72
%%MIDI transpose 8
%%MIDI ratio 3 1
(3(def)|g2d2d2|d3 edc|B2G2G2|G3 BAG|F2A2A2|G2B2B2|
A2c2c2|B4 z2(3(def)|g2d2d2|d3 edc|B2G2G2|G2z2d2|.e.d.e.f.g.e|
d2 BdBd|c2A2F2|G2 z2::(3(BAG)|F2A2A2|G2B2B2|A2c2c2|
B2d2G2|F2AFAF|G2BGBG|A2B2c2|B2 z2(3(def)|g2d2d2|d3 edc|
B2G2G2|G2 z2d2|.e.d.e.f.g.e|d2.B.d.B.d|c2A2F2|G2z2:|
